Automatic/src/svg/Pioneer - Laseractive-content.svg

<svg xmlns="http://www.w3.org/2000/svg" xml:space="preserve" width="309.333" height="309.333"><defs><clipPath id="a" clipPathUnits="userSpaceOnUse"><path d="M0 256h256V0H0Z"/></clipPath></defs><g clip-path="url(#a)" transform="matrix(1.33333 0 0 -1.33333 -16 325.333)"><path d="M0 0c-29.918 0-58.045 11.65-79.198 32.804C-100.351 53.957-112 82.083-112 112s11.649 58.043 32.802 79.196C-58.045 212.35-29.918 224 0 224c61.757 0 112-50.243 112-112S61.757 0 0 0m0 228c-64.071 0-116-51.934-116-116S-64.071-4 0-4c64.051 0 116 51.934 116 116S64.051 228 0 228" style="fill:#fff;fill-opacity:1;fill-rule:nonzero;stroke:none" transform="translate(128 16)"/><path d="M0 0c-17.649 0-32.002 14.356-32.002 32S-17.649 64 0 64c17.645 0 31.998-14.356 31.998-32S17.645 0 0 0m0 68c-19.851 0-36.002-16.15-36.002-36S-19.851-4 0-4c19.849 0 35.998 16.15 35.998 36S19.849 68 0 68" style="fill:#fff;fill-opacity:1;fill-rule:nonzero;stroke:none" transform="translate(128.002 96)"/><path d="M0 0c-8.837 0-16-7.163-16-16s7.163-16 16-16 16 7.163 16 16S8.837 0 0 0m0-4c6.617 0 12-5.383 12-12S6.617-28 0-28s-12 5.383-12 12S-6.617-4 0-4" style="fill:#fff;fill-opacity:1;fill-rule:nonzero;stroke:none" transform="translate(128 144)"/></g></svg>

<?xml version="1.0" encoding="UTF-8" standalone="no"?>
<svg
   xmlns:dc="http://purl.org/dc/elements/1.1/"
   xmlns:cc="http://creativecommons.org/ns#"
   xmlns:rdf="http://www.w3.org/1999/02/22-rdf-syntax-ns#"
   xmlns:svg="http://www.w3.org/2000/svg"
   xmlns="http://www.w3.org/2000/svg"
   viewBox="0 0 309.33331 309.33331"
   height="309.33331"
   width="309.33331"
   xml:space="preserve"
   id="svg2"
   version="1.1"><metadata
     id="metadata8"><rdf:RDF><cc:Work
         rdf:about=""><dc:format>image/svg+xml</dc:format><dc:type
           rdf:resource="http://purl.org/dc/dcmitype/StillImage" /></cc:Work></rdf:RDF></metadata><defs
     id="defs6"><clipPath
       id="clipPath18"
       clipPathUnits="userSpaceOnUse"><path
         id="path16"
         d="M 0,256 H 256 V 0 H 0 Z" /></clipPath></defs><g
     transform="matrix(1.3333333,0,0,-1.3333333,-16,325.33333)"
     id="g10"><g
       id="g12"><g
         clip-path="url(#clipPath18)"
         id="g14"><g
           transform="translate(128,16)"
           id="g20"><path
             id="path22"
             style="fill:#ffffff;fill-opacity:1;fill-rule:nonzero;stroke:none"
             d="M 0,0 C -29.918,0 -58.045,11.65 -79.198,32.804 -100.351,53.957 -112,82.083 -112,112 c 0,29.917 11.649,58.043 32.802,79.196 C -58.045,212.35 -29.918,224 0,224 61.757,224 112,173.757 112,112 112,50.243 61.757,0 0,0 M 0,228 C -64.071,228 -116,176.066 -116,112 -116,47.934 -64.071,-4 0,-4 64.051,-4 116,47.934 116,112 116,176.066 64.051,228 0,228" /></g><g
           transform="translate(128.0018,96)"
           id="g24"><path
             id="path26"
             style="fill:#ffffff;fill-opacity:1;fill-rule:nonzero;stroke:none"
             d="M 0,0 C -17.649,0 -32.002,14.356 -32.002,32 -32.002,49.644 -17.649,64 0,64 17.645,64 31.998,49.644 31.998,32 31.998,14.356 17.645,0 0,0 M 0,68 C -19.851,68 -36.002,51.85 -36.002,32 -36.002,12.15 -19.851,-4 0,-4 19.849,-4 35.998,12.15 35.998,32 35.998,51.85 19.849,68 0,68" /></g><g
           transform="translate(128,144)"
           id="g28"><path
             id="path30"
             style="fill:#ffffff;fill-opacity:1;fill-rule:nonzero;stroke:none"
             d="m 0,0 c -8.837,0 -16,-7.163 -16,-16 0,-8.837 7.163,-16 16,-16 8.837,0 16,7.163 16,16 C 16,-7.163 8.837,0 0,0 m 0,-4 c 6.617,0 12,-5.383 12,-12 0,-6.617 -5.383,-12 -12,-12 -6.617,0 -12,5.383 -12,12 0,6.617 5.383,12 12,12" /></g></g></g></g></svg>
